svg/blobs-icons/no-decorations/coke-bottle.svg

<svg xmlns="http://www.w3.org/2000/svg" xmlns:xlink="http://www.w3.org/1999/xlink" preserveAspectRatio="xMidYMid" width="63" height="217" viewBox="0 0 63 217"><defs><style>.cls-3{fill:#2476ff}.cls-4{fill:#fbb713}.cls-6{fill:#020403;opacity:.35}.cls-9{fill:#ff3a2f}</style></defs><g id="group-69svg"><path d="M40.891.008s-9.74.0-9.74.0-9.745.0-9.745.0c0 25.105-4.55 37.77-4.55 37.77s14.295.0 14.295.0 14.293.0 14.293.0S40.891 25.113 40.891.008z" id="path-1" class="cls-3" fill-rule="evenodd"/><path d="M53.662 63.029C51.021 57.156 45.441 37.778 45.441 37.778s-14.292.0-14.292.0-14.295.0-14.295.0-5.577 19.378-8.219 25.251C5.992 68.9 3.348 79.765 5.7 82.114 5.7 82.114 5.37 82.942 4.882 84.522H31.149s26.266.0 26.266.0C56.928 82.942 56.598 82.114 56.598 82.114 58.947 79.765 56.306 68.901 53.662 63.029z" id="path-2" class="cls-4" fill-rule="evenodd"/><path d="M58.947 183.706C52.484 172.072 56.492 159.977 59.547 137.805H31.149s-28.399.0-28.399.0c3.053 22.172 7.062 34.267.598 45.901-7.34 13.215-.292 28.191-.292 28.191S11.969 216.888 31.149 216.888C50.327 216.889 59.239 211.897 59.239 211.897S66.289 196.921 58.947 183.706z" id="path-3" class="cls-4" fill-rule="evenodd"/><path d="M40.891.008s-9.74.0-9.74.0-6.033.0-6.033.0c0 25.105 4.553 37.77 4.553 37.77s1.48.0 1.48.0 14.293.0 14.293.0S40.891 25.113 40.891.008z" id="path-4" class="cls-6" fill-rule="evenodd"/><path d="M53.662 63.029C51.02 57.156 45.441 37.778 45.441 37.778s-14.292.0-14.292.0-1.48.0-1.48.0 5.579 19.378 8.22 25.251C40.533 68.901 43.175 79.766 40.825 82.114 40.825 82.114 41.155 82.942 41.643 84.523H57.415C56.928 82.942 56.598 82.114 56.598 82.114 58.947 79.766 56.306 68.901 53.662 63.029z" id="path-5" class="cls-6" fill-rule="evenodd"/><path d="M58.947 183.707C52.484 172.072 56.492 159.977 59.547 137.805H43.775C40.719 159.977 36.711 172.072 43.175 183.707 50.516 196.921 43.467 211.897 43.467 211.897S36.991 215.498 23.266 216.577C25.676 216.766 28.284 216.888 31.149 216.888 50.327 216.889 59.239 211.897 59.239 211.897S66.289 196.921 58.947 183.707z" id="path-6" class="cls-6" fill-rule="evenodd"/><path d="M22.544 110.338C25.358 109.966 28.243 109.277 31.149 108.432 41.308 105.484 51.743 100.542 60.523 99.667 59.632 92.506 58.278 87.322 57.415 84.522H31.149s0 0 0 0-26.267.0-26.267.0c-1.132 3.675-3.108 11.45-3.775 22.433C8.143 109.337 16.142 111.187 22.544 110.338z" id="path-7" class="cls-9" fill-rule="evenodd"/><path d="M61.269 108.399C55.015 108.49 43.511 109.017 31.149 111.37 28.308 111.912 25.422 112.548 22.544 113.3 14.016 115.525 6.77 114.245.912 111.741.803 116.713.969 122.213 1.589 128.214 1.938 131.612 2.336 134.799 2.75 137.805H31.149s0 0 0 0 28.398.0 28.398.0C59.961 134.799 60.358 131.612 60.709 128.214 61.47 120.834 61.554 114.202 61.269 108.399z" id="path-8" class="cls-9" fill-rule="evenodd"/><path d="M57.415 84.523s-15.772.0-15.772.0C42.507 87.323 43.859 92.506 44.751 99.667 35.971 100.542 25.536 105.484 15.376 108.432 13.846 108.878 12.322 109.269 10.811 109.604 14.922 110.429 18.98 110.811 22.544 110.338 25.358 109.966 28.243 109.277 31.149 108.432 41.308 105.484 51.743 100.542 60.523 99.667 59.632 92.506 58.278 87.323 57.415 84.523z" id="path-9" class="cls-6" fill-rule="evenodd"/><path d="M6.032 113.46C4.225 113.005 2.513 112.426.911 111.742.894 112.553.935 113.468.933 114.309 2.575 114.165 4.278 113.879 6.032 113.46z" id="path-10" class="cls-6" fill-rule="evenodd"/><path d="M61.268 108.399C57.565 108.453 51.997 108.67 45.525 109.319 45.757 114.906 45.659 121.21 44.936 128.214 44.585 131.612 44.189 134.799 43.775 137.805H59.547C59.961 134.799 60.358 131.612 60.709 128.214 61.469 120.834 61.553 114.202 61.268 108.399z" id="path-11" class="cls-6" fill-rule="evenodd"/></g></svg>

<svg xmlns="http://www.w3.org/2000/svg" xmlns:xlink="http://www.w3.org/1999/xlink" preserveAspectRatio="xMidYMid" width="63" height="217" viewBox="0 0 63 217">
  <defs>
    <style>

      .cls-3 {
        fill: #2476ff;
      }

      .cls-4 {
        fill: #fbb713;
      }

      .cls-6 {
        fill: #020403;
        opacity: 0.35;
      }

      .cls-9 {
        fill: #ff3a2f;
      }
    </style>
  </defs>
  <g id="group-69svg">
    <path d="M40.891,0.008 C40.891,0.008 31.151,0.008 31.151,0.008 C31.151,0.008 21.406,0.008 21.406,0.008 C21.406,25.113 16.856,37.778 16.856,37.778 C16.856,37.778 31.151,37.778 31.151,37.778 C31.151,37.778 45.444,37.778 45.444,37.778 C45.444,37.778 40.891,25.113 40.891,0.008 Z" id="path-1" class="cls-3" fill-rule="evenodd"/>
    <path d="M53.662,63.029 C51.021,57.156 45.441,37.778 45.441,37.778 C45.441,37.778 31.149,37.778 31.149,37.778 C31.149,37.778 16.854,37.778 16.854,37.778 C16.854,37.778 11.277,57.156 8.635,63.029 C5.992,68.900 3.348,79.765 5.700,82.114 C5.700,82.114 5.370,82.942 4.882,84.522 C4.882,84.522 31.149,84.522 31.149,84.522 C31.149,84.522 57.415,84.522 57.415,84.522 C56.928,82.942 56.598,82.114 56.598,82.114 C58.947,79.765 56.306,68.901 53.662,63.029 Z" id="path-2" class="cls-4" fill-rule="evenodd"/>
    <path d="M58.947,183.706 C52.484,172.072 56.492,159.977 59.547,137.805 C59.547,137.805 31.149,137.805 31.149,137.805 C31.149,137.805 2.750,137.805 2.750,137.805 C5.803,159.977 9.812,172.072 3.348,183.706 C-3.992,196.921 3.056,211.897 3.056,211.897 C3.056,211.897 11.969,216.888 31.149,216.888 C50.327,216.889 59.239,211.897 59.239,211.897 C59.239,211.897 66.289,196.921 58.947,183.706 Z" id="path-3" class="cls-4" fill-rule="evenodd"/>
    <path d="M40.891,0.008 C40.891,0.008 31.151,0.008 31.151,0.008 C31.151,0.008 25.118,0.008 25.118,0.008 C25.118,25.113 29.671,37.778 29.671,37.778 C29.671,37.778 31.151,37.778 31.151,37.778 C31.151,37.778 45.444,37.778 45.444,37.778 C45.444,37.778 40.891,25.113 40.891,0.008 Z" id="path-4" class="cls-6" fill-rule="evenodd"/>
    <path d="M53.662,63.029 C51.020,57.156 45.441,37.778 45.441,37.778 C45.441,37.778 31.149,37.778 31.149,37.778 C31.149,37.778 29.669,37.778 29.669,37.778 C29.669,37.778 35.248,57.156 37.889,63.029 C40.533,68.901 43.175,79.766 40.825,82.114 C40.825,82.114 41.155,82.942 41.643,84.523 C41.643,84.523 57.415,84.523 57.415,84.523 C56.928,82.942 56.598,82.114 56.598,82.114 C58.947,79.766 56.306,68.901 53.662,63.029 Z" id="path-5" class="cls-6" fill-rule="evenodd"/>
    <path d="M58.947,183.707 C52.484,172.072 56.492,159.977 59.547,137.805 C59.547,137.805 43.775,137.805 43.775,137.805 C40.719,159.977 36.711,172.072 43.175,183.707 C50.516,196.921 43.467,211.897 43.467,211.897 C43.467,211.897 36.991,215.498 23.266,216.577 C25.676,216.766 28.284,216.888 31.149,216.888 C50.327,216.889 59.239,211.897 59.239,211.897 C59.239,211.897 66.289,196.921 58.947,183.707 Z" id="path-6" class="cls-6" fill-rule="evenodd"/>
    <path d="M22.544,110.338 C25.358,109.966 28.243,109.277 31.149,108.432 C41.308,105.484 51.743,100.542 60.523,99.667 C59.632,92.506 58.278,87.322 57.415,84.522 C57.415,84.522 31.149,84.522 31.149,84.522 C31.149,84.522 31.149,84.522 31.149,84.522 C31.149,84.522 4.882,84.522 4.882,84.522 C3.750,88.197 1.774,95.972 1.107,106.955 C8.143,109.337 16.142,111.187 22.544,110.338 Z" id="path-7" class="cls-9" fill-rule="evenodd"/>
    <path d="M61.269,108.399 C55.015,108.490 43.511,109.017 31.149,111.370 C31.149,111.370 31.149,111.370 31.149,111.370 C28.308,111.912 25.422,112.548 22.544,113.300 C14.016,115.525 6.770,114.245 0.912,111.741 C0.803,116.713 0.969,122.213 1.589,128.214 C1.938,131.612 2.336,134.799 2.750,137.805 C2.750,137.805 31.149,137.805 31.149,137.805 C31.149,137.805 31.149,137.805 31.149,137.805 C31.149,137.805 59.547,137.805 59.547,137.805 C59.961,134.799 60.358,131.612 60.709,128.214 C61.470,120.834 61.554,114.202 61.269,108.399 Z" id="path-8" class="cls-9" fill-rule="evenodd"/>
    <path d="M57.415,84.523 C57.415,84.523 41.643,84.523 41.643,84.523 C42.507,87.323 43.859,92.506 44.751,99.667 C35.971,100.542 25.536,105.484 15.376,108.432 C13.846,108.878 12.322,109.269 10.811,109.604 C14.922,110.429 18.980,110.811 22.544,110.338 C25.358,109.966 28.243,109.277 31.149,108.432 C41.308,105.484 51.743,100.542 60.523,99.667 C59.632,92.506 58.278,87.323 57.415,84.523 Z" id="path-9" class="cls-6" fill-rule="evenodd"/>
    <path d="M6.032,113.460 C4.225,113.005 2.513,112.426 0.911,111.742 C0.894,112.553 0.935,113.468 0.933,114.309 C2.575,114.165 4.278,113.879 6.032,113.460 Z" id="path-10" class="cls-6" fill-rule="evenodd"/>
    <path d="M61.268,108.399 C57.565,108.453 51.997,108.670 45.525,109.319 C45.757,114.906 45.659,121.210 44.936,128.214 C44.585,131.612 44.189,134.799 43.775,137.805 C43.775,137.805 59.547,137.805 59.547,137.805 C59.961,134.799 60.358,131.612 60.709,128.214 C61.469,120.834 61.553,114.202 61.268,108.399 Z" id="path-11" class="cls-6" fill-rule="evenodd"/>
  </g>
</svg>
